X:1
T:Brazilian stomp improvisation
T:Brazilian stomp improvisation
T:transcribed by MJ
T:George Benson
C:George Benson
L:1/8
M:4/4
K:Bb
V:1 treble-8 nm="Electric Guitar" snm="El. Guit."
V:1
"^theme" z8 || z/ g/f/d/ c/B/G/F/ z/ D/z/C/- CB, | z6 c/d/f/g/- | %3
 g/f/d/_d/ c/B/G/F/ G/F/D/C/- C/C/B,/G,/ | z4 z3 z/ d/ | f/d/f/f/ d/G/B c/c/B cB/G/- | %6
 GF (3G/F/D/_D/C/ B,/G,/C/G,/ B,2 | z/ A^F/ (3G/c/=B/_B/F/ G/A/B/c/ d2 ||"^theme" z8 || %9
 bf{_d}cB- B2 z2 | z dga bc'af | g/g/d/B/ c/B/c- c/d/e/c/ A/B/c/A/ | %12
 B/GG/- GF (3G/F/D/C/B,/ z3/2 G,/ | B,/D/B,/=B,/ C/B/d/B/ c/B/A/G/ ^F/A/c/e/ | %14
 d/B/G/ z/ A/c/B/A/ B2- B z/ d'/ | f'/d'/^f'/d'/ g'/d'/f'/d'/ c'/b/g/f/ d/_d/c/B/ | G2 z2 z4 || %17
"^bridge\n" z8 || z4 z/ g'f'/ g'f'/a'/- | a'/f'd'/- d'2 z4 | %20
[M:3/4] g'/f'e'/ d'/c'/b/=b/- b/d'/_a/f/ |[M:4/4] e/d/c/G/ d/c/G/E/ D/E/F/D/ E/C/ z | %22
 z/ C/E/G/ dB/c/- c/d/e/f/ df/d/- | dF- FD F/E/G/B/ d/f/ z | %24
 z c'/d'/ f'/=e'/_e'/d'/ c'/b/a/g/ f/=e/_e/c/ | d/=e/^f/a/ g/a/d'/c'/ b>f =f/_e/B/c/ | %26
 d>d- d4 z/ gf/ | d>d- d4 z/ ag/ |[M:3/4] d>d (3z e=B (3GdB |[M:4/4] G>E D/E/F/D/ E/C/-C- C2 | %30
 z/ C/4E/4G/4B/4 z/ z/ G/B/d/ c/d/e/f/ a/b/f'/d'/ | a>f d/c/B/A/ B/d/f/a/ c'/a/f/d/ | %32
 c/=B/_B/A/ G/F/E/D/ C/E/G/B/ A/_A/G/E/ | D/^F/A/d/ f/d/e/f/ d/B/F/G/ A/D/=F/G/ || %34
 B(3G/F/D/ (3_D/C/B,/G, B,>C z2 | z/ G,/B,/D/ CD/B,/- B,/D/F/G/ F/G/B/c/ | %36
 (5:4:5F/G/B/c/F/ (5:4:5G/B/c/d/f/ (5:4:3z3/2 F/G/ (5:4:5B/c/d/c/d/ | %37
 f/g/b (6:4:6g/f/d/c/B/G/ z2 c/c/c- | c/B/G/F/ !slide![Bd]<[Bd] [Bd]/B/G/F/ [FB]/G/[FB]- | %39
 [FB]/G/F/D/ C/D/B/D/ _D/C/B,/F,/ C/B,/G,/F,/ | %40
 (6:4:6z/ F/G/d/c/B/ (6:4:6f/B/c/f/d/c/ (6:4:4b/z3/2f/g/ (6:4:6b/f/g/_d'/f/g/ | %41
 (6:4:6b/g/f/c'/b/g/ (6:4:6c'/b/g/d'/c'/b/ f'2 z2 || z c'/d'/- d'e'/=e'/- e'>c' a/=e/c/A/ | %43
 g>d =e/g/e/c/ A/F/d- d/B/A/G/ |[M:3/4] c/B/G/F/ D/F/G/B/- BG/B/ | %45
[M:4/4] z/ c/d/f/ e/G/d/c/ z/ gf/ d/c/G/F/ | B,/G,/ z z2 z/ G,/B,/D/ z/ G/B/c/ | %47
 d>e- eg bb/g/ (3d/_d/c/B/G/ | cc/G/ z/ G3/2 z2 (3z [Bd][Bd] | [Bd]G/c/- c/BG/ c>B c/B/G/B/- || %50
 B/[cg]/G/B/ z/ [cg]/G/B/ z/ [cg]/G/B/ z/ [cg]/G/B/ | %51
 z/ [cg]/G/B/ z/ [cg]/G/B/ z/ [cg]/G/B/ z/ [cg]/G/ z/ |[M:3/4] dd G>d- d>G | %53
[M:4/4] (6:4:3[Dd]G/[Dd]3/2 [Gd]G [Dd][Ee] [Cc]2 | z2 z/ df/ d/B/G/E/ D/E/F/E/ | %55
 D/E/G/B/ c/d/e/f/ d'a/c'/- c'/=b/_b/a/ | g/^f/=f/=e/ _e/d/b/_d/ c/B/^F/G/ A/F/D/A,/ | %57
 B,/C/_D/=D/ F/G/c/B/ A/B/G/F/ ^F/E/D/C/ | (6:4:3B2 G/F/ B2 z2 B/G/F/D/ | %59
 C/B,/G,/F,/ B,/G,/F,/G,/ C2 F/G/B/^F/ | A/^F/G/A/ B/c/d/A/ c/B/g/^f/ =f/=e/_e/d/ | %61
 c/B/A/G/ C/^C/D/F/ A/B/c/A/ B/G/F/D/ | G>G- GB d>f- fd | BG/F/ G/F/G z2 z/ c/d/g/ | %64
 _g/f/=e/_e/ d/B/z/e/ d/_d/c/=B/ _B/G/z/B/ | A/_A/G/_G/ F/=E/_E/^C/ D/C/=C/B,/ C/B,/G,/F,/ | G,8 |] %67

